svgs/matlog.svg

<svg width="192" height="192" viewBox="0 0 192 192" fill="none" xmlns="http://www.w3.org/2000/svg"><path d="m30 81.384 5.106 3.15a6 6 0 0 0 .803-4.188L30 81.384ZM34 22l2.914-5.245a6 6 0 0 0-8.577 3.263L34 22Zm36 29.871-4.976 3.353a6 6 0 0 0 6.75 2.38L70 51.87Zm92 29.513-5.91-1.038a6 6 0 0 0 .804 4.188l5.106-3.15ZM158 22l5.663-1.982a5.998 5.998 0 0 0-8.577-3.263L158 22Zm-36 29.871-1.773 5.732a6 6 0 0 0 6.749-2.379L122 51.873ZM96 164c-38.692 0-68-25.657-68-55H16c0 38.035 36.954 67 80 67v-12Zm-68-55c0-8.748 2.532-17.051 7.106-24.466l-10.212-6.3C19.237 87.401 16 97.867 16 109h12Zm7.91-28.654c-.913-5.197-1.652-14.615-1.288-25.217.364-10.62 1.821-21.947 5.041-31.147l-11.326-3.964c-3.78 10.8-5.323 23.473-5.709 34.7-.386 11.243.375 21.517 1.462 27.704l11.82-2.076Zm35.863-22.743C79.285 55.28 87.448 54 96 54V42c-9.747 0-19.107 1.458-27.773 4.14l3.546 11.463ZM31.086 27.245c17.602 9.779 26.686 17.217 33.938 27.98l9.952-6.706c-8.748-12.981-19.664-21.543-38.062-31.764l-5.828 10.49ZM96 176c43.046 0 80-28.965 80-67h-12c0 29.343-29.308 55-68 55v12Zm80-67c0-11.132-3.236-21.598-8.894-30.767l-10.212 6.301C161.468 91.95 164 100.252 164 109h12Zm-8.09-26.578c1.087-6.187 1.847-16.461 1.461-27.705-.385-11.226-1.928-23.899-5.708-34.7l-11.326 3.965c3.22 9.2 4.677 20.527 5.042 31.147.364 10.602-.376 20.02-1.289 25.217l11.82 2.076ZM123.773 46.14C115.107 43.458 105.747 42 96 42v12c8.552 0 16.715 1.28 24.227 3.603l3.546-11.463Zm31.313-29.385c-18.398 10.221-29.314 18.783-38.062 31.764l9.952 6.706c7.252-10.763 16.336-18.201 33.938-27.98l-5.828-10.49Z" fill="#000"/><path d="M140 82H80m60 24H80m60 24H80M60 82h-8m8 24h-8m8 24h-8" stroke="#000" stroke-width="12" stroke-linecap="round" stroke-linejoin="round"/></svg>

<svg id="vector" xmlns="http://www.w3.org/2000/svg" width="192" height="192" viewBox="0 0 192 192"><path fill="#000000" d="M30,81.384L35.106,84.535C35.878,83.284 36.164,81.793 35.91,80.346L30,81.384ZM34,22L36.914,16.755C35.367,15.896 33.52,15.763 31.867,16.392C30.213,17.021 28.921,18.348 28.337,20.018L34,22ZM70,51.871L65.024,55.224C66.503,57.419 69.245,58.386 71.773,57.603L70,51.871ZM162,81.384L156.09,80.346C155.836,81.793 156.122,83.284 156.894,84.535L162,81.384ZM158,22L163.663,20.018C163.079,18.348 161.787,17.021 160.133,16.392C158.48,15.763 156.633,15.896 155.086,16.755L158,22ZM122,51.871L120.227,57.603C122.755,58.386 125.497,57.419 126.976,55.224L122,51.871ZM96,164C57.308,164 28,138.343 28,109H16C16,147.035 52.954,176 96,176V164ZM28,109C28,100.252 30.532,91.949 35.106,84.535L24.894,78.233C19.236,87.402 16,97.868 16,109H28ZM35.91,80.346C34.996,75.149 34.257,65.731 34.621,55.129C34.986,44.509 36.443,33.182 39.663,23.982L28.337,20.018C24.557,30.818 23.014,43.491 22.628,54.717C22.243,65.961 23.003,76.235 24.09,82.422L35.91,80.346ZM71.773,57.603C79.285,55.279 87.449,54 96,54V42C86.253,42 76.893,43.458 68.227,46.14L71.773,57.603ZM31.086,27.245C48.688,37.024 57.772,44.462 65.024,55.224L74.976,48.519C66.228,35.538 55.312,26.976 36.914,16.755L31.086,27.245ZM96,176C139.046,176 176,147.035 176,109H164C164,138.343 134.692,164 96,164V176ZM176,109C176,97.868 172.764,87.402 167.106,78.233L156.894,84.535C161.468,91.949 164,100.252 164,109H176ZM167.91,82.422C168.997,76.235 169.757,65.961 169.371,54.717C168.986,43.491 167.443,30.818 163.663,20.018L152.337,23.982C155.557,33.182 157.014,44.509 157.379,55.129C157.743,65.731 157.003,75.149 156.09,80.346L167.91,82.422ZM123.773,46.14C115.107,43.458 105.747,42 96,42V54C104.552,54 112.715,55.279 120.227,57.603L123.773,46.14ZM155.086,16.755C136.688,26.976 125.772,35.538 117.024,48.519L126.976,55.224C134.228,44.462 143.312,37.024 160.914,27.245L155.086,16.755Z" id="path_0"/><path fill="#00000000" d="M140,82H80" stroke-linejoin="round" stroke-width="12" stroke="#000000" stroke-linecap="round" id="path_1"/><path fill="#00000000" d="M140,106H80" stroke-linejoin="round" stroke-width="12" stroke="#000000" stroke-linecap="round" id="path_2"/><path fill="#00000000" d="M140,130H80" stroke-linejoin="round" stroke-width="12" stroke="#000000" stroke-linecap="round" id="path_3"/><path fill="#00000000" d="M60,82H52" stroke-linejoin="round" stroke-width="12" stroke="#000000" stroke-linecap="round" id="path_4"/><path fill="#00000000" d="M60,106H52" stroke-linejoin="round" stroke-width="12" stroke="#000000" stroke-linecap="round" id="path_5"/><path fill="#00000000" d="M60,130H52" stroke-linejoin="round" stroke-width="12" stroke="#000000" stroke-linecap="round" id="path_6"/></svg>
